X:1
T:E. P. Crawford
T:Jehovah Nissi
%%score { ( 1 2 ) | ( 3 4 ) }
L:1/8
Q:1/4=184
M:4/2
K:F
V:1 treble 
V:2 treble 
V:3 bass 
V:4 bass 
V:1
"^Presto" A4 | c4 B4 A4 A4 | A6 G2 F4 C4 | D4 E4 F4 G4 | A4 G4 G4 G4 | A4 c4 c4 =B4 | c12 c4 | %7
 d4 A4 B4 d4 | c6 B2 A4 F4 | B4 A4 G4 F4 | E4 F4 G4 G4 | c4 F4 F4 E4 | F12 | F8 F8 |] %14
V:2
 F4 | F4 F4 E4 F4 | D4 E4 C4 C4 | B,4 B,4 D4 E4 | F4 D4 E4 G4 | F4 E4 F4 F4 | E12 E4 | %7
 D4 ^F4 G4 G4 | G4 E4 F4 F4 | F4 F4 D4 D4 | ^C4 D4 E4 E4 | F4 D4 D4 C4 | C12 | D8 C8 |] %14
V:3
 F,4 | A,4 B,4 C4 C4 | D4 B,4 A,4 F,4 | F,4 B,4 A,4 C4 | C4 =B,4 C4 C4 | C4 C4 D4 D4 | %6
 C12 (C2 B,2) | A,4 D4 D4 (B,2 A,2) | G,4 C4 C4 A,4 | B,4 C4 D4 A,4 | A,4 A,4 C4 C4 | %11
 C4 A,4 B,4 G,4 | A,12 | B,8 A,8 |] %14
V:4
 F,4 | F,4 D,4 C,4 A,,4 | B,,4 C,4 F,,4 A,,4 | B,,4 G,,4 D,4 C,4 | F,4 G,4 C,4 E,4 | %5
 F,4 A,4 D,4 G,4 | C,12 A,2 G,2 | ^F,4 D,4 G,4 (G,2 F,2) | E,4 C,4 F,4 F,4 | D,4 F,4 B,,4 D,4 | %10
 A,,4 D,4 C,4 B,,4 | A,,4 D,4 B,,4 C,4 | F,,12 | B,,8 F,8 |] %14

